X:1
T:Title
%%score ( 1 2 ) { 3 | 4 }
L:1/8
Q:1/4=110
M:4/4
K:A
V:1 treble nm="Grand Piano, Soprano"
V:2 treble 
V:3 bass nm="Choir Pad, Brentwood (Smallwood)"
V:4 bass 
V:1
 z4 .F2 z2 | [FB]2 [EB]2 [Ec]2 [Ec]2 | [Ee]2 [CA]2 [FB]2 B-[DB] | [CA]8 | [EB]2 [EG]2 [Ec]2 [EB]2 | %5
 [^DA]2 [EG]2 [DF]2 [DB]2 | E2 [EG]2 [EF]2 [^DF]2 | E8 | [CF]2 [CF]2 [DF]2 [FB]2 | %9
 [EG]2 G-[DG] [CA]4 | [Ec]2 [EB]2 [Dd]2 [Ec]2 | [EA]2 [FB]2 [EG]4 | z4 .F2 z2 | %13
 [DB]2 B-[DB] [Cc]2 [Ec]2 | [Ee]2 [CA]2 [FB]2 B-[DB] | [CA]8 |] %16
V:2
 [CE]2 [CE]2 D-[DG] [EA]2 | x8 | z4 z2 .E2 | x8 | x8 | x8 | x8 | x8 | x8 | z2 .E2 z4 | x8 | x8 | %12
 E2 E2 D-[DG] [CA]2 | z2 .E2 z4 | z4 z2 .E2 | x8 |] %16
V:3
 A,2 A,2 A,2 A,2 | A,2 G,2 A,2 A,2 | G,2 A,2 A,2 G,2 | A,8 | G,2 B,2 A,2 B,2 | B,2 B,2 B,2 A,2 | %6
 G,2 B,2 C2 B,A, | G,8 | A,2 ^A,2 B,2 D2 | B,2 B,2 A,4 | A,2 B,2 A,2 A,2 | A,2 D2 B,4 | %12
 C2 A,2 A,2 A,2 | A,2 G,2 A,2 A,2 | G,2 A,2 A,2 G,2 | A,8 |] %16
V:4
 A,,2 A,,2 D,2 C,2 | D,2 E,2 A,,2 z2 | C,2 F,2 D,2 E,2 | A,,8 | E,2 E,2 z2 G,2 | %5
 F,2 E,2 B,,2 B,,2 | C,2 G,,2 A,,2 B,,2 | E,8 | E,2 E,2 D,2 B,,2 | E,2 E,2 A,,4 | z2 G,2 F,2 z2 | %11
 C,2 D,2 E,4 | A,2 C,2 D,2 F,2 | B,,2 E,2 A,,2 z2 | C,2 F,2 D,2 E,2 | A,,8 |] %16

